; G-Code generated by Simplify3D(R) Version 3.0.2
; May 1, 2016 at 6:23:38 PM
; Settings Summary
;   processName,Process2
;   applyToModels,Aus3Dtext1
;   profileName,i3 - V6 (modified)
;   profileVersion,2015-12-23 01:27:31
;   baseProfile,Default (modified)
;   printMaterial,
;   printQuality,
;   printExtruders,
;   extruderName,Primary Extruder
;   extruderToolheadNumber,0
;   extruderDiameter,0.4
;   extruderAutoWidth,1
;   extruderWidth,0.48
;   extrusionMultiplier,0.96
;   extruderUseRetract,1
;   extruderRetractionDistance,0.8
;   extruderExtraRestartDistance,0
;   extruderRetractionZLift,0
;   extruderRetractionSpeed,1800
;   extruderUseCoasting,0
;   extruderCoastingDistance,0.2
;   extruderUseWipe,0
;   extruderWipeDistance,5
;   primaryExtruder,0
;   layerHeight,0.2
;   topSolidLayers,3
;   bottomSolidLayers,3
;   perimeterOutlines,2
;   printPerimetersInsideOut,1
;   startPointOption,2
;   startPointOriginX,0
;   startPointOriginY,0
;   startPointOriginZ,300
;   sequentialIslands,0
;   spiralVaseMode,0
;   firstLayerHeightPercentage,90
;   firstLayerWidthPercentage,100
;   firstLayerUnderspeed,0.3
;   useRaft,0
;   raftExtruder,0
;   raftLayers,2
;   raftOffset,5
;   raftSeparationDistance,0.28
;   raftInfill,85
;   disableRaftBaseLayers,1
;   useSkirt,1
;   skirtExtruder,0
;   skirtLayers,1
;   skirtOutlines,1
;   skirtOffset,10
;   usePrimePillar,0
;   primePillarExtruder,999
;   primePillarWidth,12
;   primePillarLocation,7
;   primePillarSpeedMultiplier,1
;   useOozeShield,0
;   oozeShieldExtruder,999
;   oozeShieldOffset,2
;   oozeShieldOutlines,1
;   oozeShieldSidewallShape,1
;   oozeShieldSidewallAngle,30
;   oozeShieldSpeedMultiplier,1
;   infillExtruder,0
;   internalInfillPattern,Rectilinear
;   externalInfillPattern,Rectilinear
;   infillPercentage,20
;   outlineOverlapPercentage,15
;   infillExtrusionWidthPercentage,100
;   minInfillLength,5
;   infillLayerInterval,1
;   infillAngles,45,-45
;   overlapInfillAngles,0
;   generateSupport,0
;   supportExtruder,0
;   supportInfillPercentage,30
;   supportExtraInflation,0
;   denseSupportLayers,0
;   denseSupportInfillPercentage,70
;   supportLayerInterval,1
;   supportHorizontalPartOffset,0.3
;   supportUpperSeparationLayers,1
;   supportLowerSeparationLayers,1
;   supportType,0
;   supportGridSpacing,1.5
;   maxOverhangAngle,45
;   supportAngles,0
;   temperatureName,Primary Extruder,Heated Bed
;   temperatureNumber,0,1
;   temperatureSetpointCount,1,1
;   temperatureSetpointLayers,1,1
;   temperatureSetpointTemperatures,220,104
;   temperatureStabilizeAtStartup,1,1
;   temperatureHeatedBed,0,1
;   temperatureRelayBetweenLayers,0,0
;   temperatureRelayBetweenLoops,0,0
;   fanLayers,1,5
;   fanSpeeds,0,0
;   blipFanToFullPower,1
;   adjustSpeedForCooling,1
;   minSpeedLayerTime,45
;   minCoolingSpeedSlowdown,75
;   increaseFanForCooling,1
;   minFanLayerTime,45
;   maxCoolingFanSpeed,55
;   increaseFanForBridging,1
;   bridgingFanSpeed,55
;   use5D,1
;   relativeEdistances,0
;   allowEaxisZeroing,1
;   independentExtruderAxes,0
;   includeM10123,0
;   stickySupport,1
;   applyToolheadOffsets,0
;   gcodeXoffset,0
;   gcodeYoffset,0
;   gcodeZoffset,0
;   overrideMachineDefinition,1
;   machineTypeOverride,0
;   strokeXoverride,200
;   strokeYoverride,200
;   strokeZoverride,200
;   originOffsetXoverride,0
;   originOffsetYoverride,0
;   originOffsetZoverride,0
;   homeXdirOverride,-1
;   homeYdirOverride,-1
;   homeZdirOverride,-1
;   flipXoverride,1
;   flipYoverride,-1
;   flipZoverride,1
;   toolheadOffsets,0,0|0,0|0,0|0,0|0,0|0,0
;   overrideFirmwareConfiguration,1
;   firmwareTypeOverride,RepRap (Marlin/Repetier/Sprinter)
;   GPXconfigOverride,r2
;   baudRateOverride,250000
;   overridePrinterModels,1
;   printerModelsOverride
;   startingGcode,G28 ; home all axes,G29; bed level
;   layerChangeGcode,
;   retractionGcode,
;   toolChangeGcode,
;   endingGcode,M104 S0 ; turn off extruder,M140 S0 ; turn off bed,G28 X0 ; home X axis,M84 ; disable motors,M107; print fan off
;   createX3G,0
;   celebration,0
;   celebrationSong,Random Song
;   createMB5G,0
;   postProcessing,
;   defaultSpeed,3600
;   outlineUnderspeed,0.6
;   solidInfillUnderspeed,0.85
;   supportUnderspeed,0.8
;   rapidXYspeed,4500
;   rapidZspeed,1000
;   minBridgingArea,50
;   bridgingExtraInflation,0
;   bridgingExtrusionMultiplier,1
;   bridgingSpeedMultiplier,1
;   filamentDiameter,1.75
;   filamentPricePerKg,80
;   filamentDensity,1.25
;   useMinPrintHeight,0
;   minPrintHeight,0
;   useMaxPrintHeight,0
;   maxPrintHeight,30
;   useDiaphragm,0
;   diaphragmLayerInterval,20
;   robustSlicing,1
;   mergeAllIntoSolid,0
;   onlyRetractWhenCrossingOutline,1
;   retractBetweenLayers,1
;   useRetractionMinTravel,0
;   retractionMinTravel,3
;   retractWhileWiping,1
;   onlyWipeOutlines,1
;   avoidCrossingOutline,1
;   maxMovementDetourFactor,3
;   toolChangeRetractionDistance,12
;   toolChangeExtraRestartDistance,-0.5
;   toolChangeRetractionSpeed,600
;   allowThinWallGapFill,1
;   thinWallAllowedOverlapPercentage,10
;   horizontalSizeCompensation,0
G90
M82
M106 S0
M140 S104
M190 S104
M104 S220 T0
M109 S220 T0
G28 ; home all axes
G29; bed level
G92 E0
G1 E-0.8000 F1800
G1 Z0.180 F1000
; layer 1, Z = 0.18
T0
; tool H0.200 W0.480
; skirt
G1 X52.315 Y79.401 F4500
G1 E0.0000 F540
G92 E0
G1 X58.223 Y78.437 E0.2294 F2700
G1 X58.231 Y78.436 E0.2297
G1 X58.867 Y78.373 E0.2542
G1 X58.874 Y78.373 E0.2544
G1 X60.429 Y78.318 E0.3140
G1 X60.433 Y78.318 E0.3142
G1 X60.839 Y78.320 E0.3298
G1 X60.844 Y78.320 E0.3299
G1 X62.426 Y78.391 E0.3906
G1 X62.431 Y78.391 E0.3908
G1 X62.883 Y78.431 E0.4082
G1 X62.888 Y78.432 E0.4084
G1 X67.226 Y79.018 E0.5761
G1 X67.290 Y79.047 E0.5788
G1 X68.692 Y80.250 E0.6496
G1 X70.166 Y78.995 E0.7238
G1 X70.229 Y78.967 E0.7264
G1 X74.411 Y78.413 E0.8881
G1 X74.417 Y78.412 E0.8883
G1 X74.895 Y78.372 E0.9067
G1 X74.900 Y78.371 E0.9069
G1 X76.333 Y78.318 E0.9618
G1 X76.337 Y78.318 E0.9620
G1 X76.727 Y78.319 E0.9769
G1 X76.731 Y78.319 E0.9771
G1 X78.456 Y78.388 E1.0432
G1 X78.463 Y78.388 E1.0435
G1 X79.005 Y78.440 E1.0644
G1 X79.012 Y78.440 E1.0646
G1 X80.446 Y78.654 E1.1202
G1 X81.172 Y78.483 E1.1487
G1 X81.179 Y78.482 E1.1490
G1 X81.761 Y78.380 E1.1716
G1 X81.768 Y78.379 E1.1719
G1 X83.870 Y78.138 E1.2530
G1 X83.875 Y78.137 E1.2532
G1 X84.279 Y78.107 E1.2687
G1 X84.283 Y78.107 E1.2689
G1 X85.897 Y78.052 E1.3307
G1 X85.902 Y78.052 E1.3309
G1 X86.282 Y78.053 E1.3455
G1 X86.287 Y78.053 E1.3457
G1 X88.376 Y78.139 E1.4258
G1 X88.381 Y78.139 E1.4260
G1 X88.849 Y78.180 E1.4440
G1 X88.855 Y78.181 E1.4442
G1 X91.298 Y78.510 E1.5387
G1 X91.304 Y78.511 E1.5389
G1 X91.775 Y78.597 E1.5572
G1 X91.781 Y78.598 E1.5575
G1 X92.061 Y78.663 E1.5685
G1 X92.575 Y78.549 E1.5886
G1 X92.582 Y78.548 E1.5889
G1 X94.833 Y78.201 E1.6762
G1 X94.840 Y78.201 E1.6765
G1 X95.401 Y78.146 E1.6980
G1 X95.407 Y78.146 E1.6983
G1 X97.707 Y78.050 E1.7865
G1 X97.713 Y78.050 E1.7867
G1 X98.244 Y78.056 E1.8070
G1 X98.250 Y78.056 E1.8073
G1 X99.739 Y78.151 E1.8645
G1 X101.776 Y77.393 E1.9477
G1 X101.780 Y77.392 E1.9479
G1 X102.203 Y77.256 E1.9649
G1 X102.208 Y77.254 E1.9651
G1 X104.455 Y76.636 E2.0544
G1 X104.462 Y76.635 E2.0547
G1 X105.059 Y76.509 E2.0781
G1 X105.066 Y76.507 E2.0783
G1 X107.322 Y76.172 E2.1657
G1 X107.328 Y76.171 E2.1659
G1 X107.833 Y76.122 E2.1854
G1 X107.839 Y76.121 E2.1856
G1 X110.158 Y76.012 E2.2746
G1 X110.163 Y76.011 E2.2748
G1 X110.594 Y76.009 E2.2913
G1 X110.599 Y76.010 E2.2915
G1 X112.246 Y76.072 E2.3546
G1 X112.252 Y76.072 E2.3549
G1 X112.734 Y76.114 E2.3734
G1 X112.740 Y76.114 E2.3736
G1 X114.902 Y76.405 E2.4572
G1 X114.909 Y76.406 E2.4575
G1 X115.475 Y76.515 E2.4796
G1 X115.481 Y76.516 E2.4798
G1 X117.516 Y77.030 E2.5602
G1 X117.524 Y77.033 E2.5606
G1 X118.175 Y77.245 E2.5868
G1 X118.183 Y77.247 E2.5871
G1 X120.168 Y78.046 E2.6691
G1 X120.177 Y78.050 E2.6695
G1 X120.858 Y78.386 E2.6986
G1 X120.866 Y78.390 E2.6989
G1 X121.107 Y78.532 E2.7096
G1 X124.134 Y78.198 E2.8263
G1 X124.139 Y78.198 E2.8265
G1 X124.517 Y78.171 E2.8410
G1 X124.522 Y78.170 E2.8412
G1 X127.950 Y78.051 E2.9726
G1 X127.955 Y78.051 E2.9728
G1 X128.343 Y78.053 E2.9877
G1 X128.348 Y78.053 E2.9879
G1 X130.985 Y78.164 E3.0890
G1 X130.990 Y78.164 E3.0892
G1 X131.474 Y78.208 E3.1078
G1 X131.479 Y78.209 E3.1080
G1 X133.815 Y78.533 E3.1984
G1 X133.821 Y78.534 E3.1986
G1 X134.325 Y78.630 E3.2183
G1 X134.331 Y78.632 E3.2185
G1 X136.543 Y79.171 E3.3057
G1 X136.550 Y79.173 E3.3060
G1 X137.125 Y79.351 E3.3291
G1 X137.132 Y79.353 E3.3294
G1 X139.161 Y80.113 E3.4124
G1 X139.168 Y80.116 E3.4127
G1 X139.757 Y80.380 E3.4374
G1 X139.763 Y80.384 E3.4377
G1 X141.710 Y81.412 E3.5220
G1 X141.718 Y81.416 E3.5224
G1 X142.352 Y81.814 E3.5511
G1 X142.360 Y81.819 E3.5514
G1 X144.138 Y83.126 E3.6360
G1 X144.145 Y83.131 E3.6363
G1 X144.728 Y83.632 E3.6657
G1 X144.734 Y83.638 E3.6661
G1 X146.311 Y85.215 E3.7515
G1 X146.317 Y85.222 E3.7519
G1 X146.833 Y85.825 E3.7823
G1 X146.839 Y85.833 E3.7827
G1 X148.076 Y87.536 E3.8633
G1 X148.081 Y87.543 E3.8637
G1 X148.450 Y88.132 E3.8903
G1 X148.454 Y88.139 E3.8906
G1 X149.474 Y90.045 E3.9734
G1 X149.478 Y90.053 E3.9738
G1 X149.764 Y90.692 E4.0006
G1 X149.768 Y90.700 E4.0009
G1 X150.520 Y92.744 E4.0844
G1 X150.522 Y92.751 E4.0847
G1 X150.700 Y93.344 E4.1084
G1 X150.702 Y93.351 E4.1087
G1 X151.223 Y95.571 E4.1960
G1 X151.224 Y95.578 E4.1963
G1 X151.323 Y96.137 E4.2181
G1 X151.324 Y96.144 E4.2183
G1 X151.597 Y98.444 E4.3071
G1 X151.597 Y98.449 E4.3073
G1 X151.629 Y98.864 E4.3232
G1 X151.629 Y98.869 E4.3234
G1 X151.699 Y100.806 E4.3977
G1 X151.699 Y100.811 E4.3979
G1 X151.698 Y101.193 E4.4125
G1 X151.698 Y101.198 E4.4127
G1 X151.611 Y103.380 E4.4964
G1 X151.611 Y103.386 E4.4966
G1 X151.567 Y103.881 E4.5156
G1 X151.566 Y103.886 E4.5158
G1 X151.250 Y106.167 E4.6041
G1 X151.249 Y106.174 E4.6043
G1 X151.138 Y106.738 E4.6264
G1 X151.136 Y106.745 E4.6266
G1 X150.570 Y108.948 E4.7138
G1 X150.568 Y108.955 E4.7141
G1 X150.374 Y109.554 E4.7382
G1 X150.371 Y109.561 E4.7385
G1 X149.559 Y111.618 E4.8232
G1 X149.556 Y111.626 E4.8235
G1 X149.254 Y112.259 E4.8504
G1 X149.250 Y112.267 E4.8508
G1 X148.113 Y114.278 E4.9393
G1 X148.108 Y114.286 E4.9396
G1 X147.700 Y114.898 E4.9678
G1 X147.695 Y114.906 E4.9682
G1 X146.346 Y116.643 E5.0524
G1 X146.341 Y116.650 E5.0528
G1 X145.850 Y117.196 E5.0809
G1 X145.844 Y117.202 E5.0813
G1 X144.236 Y118.747 E5.1667
G1 X144.229 Y118.753 E5.1670
G1 X143.628 Y119.249 E5.1969
G1 X143.621 Y119.254 E5.1972
G1 X141.867 Y120.484 E5.2793
G1 X141.860 Y120.489 E5.2796
G1 X141.253 Y120.854 E5.3068
G1 X141.246 Y120.858 E5.3071
G1 X139.303 Y121.850 E5.3907
G1 X139.296 Y121.853 E5.3910
G1 X138.677 Y122.118 E5.4168
G1 X138.670 Y122.121 E5.4171
G1 X136.585 Y122.856 E5.5018
G1 X136.578 Y122.859 E5.5020
G1 X135.993 Y123.026 E5.5254
G1 X135.986 Y123.028 E5.5256
G1 X133.737 Y123.527 E5.6139
G1 X133.731 Y123.529 E5.6142
G1 X133.210 Y123.616 E5.6344
G1 X133.204 Y123.617 E5.6346
G1 X130.799 Y123.893 E5.7274
G1 X130.794 Y123.894 E5.7276
G1 X130.386 Y123.924 E5.7432
G1 X130.381 Y123.924 E5.7434
G1 X128.414 Y123.990 E5.8188
G1 X128.410 Y123.990 E5.8190
G1 X128.051 Y123.989 E5.8328
G1 X128.047 Y123.989 E5.8329
G1 X124.627 Y123.861 E5.9640
G1 X124.624 Y123.861 E5.9641
G1 X124.347 Y123.843 E5.9748
G1 X124.344 Y123.843 E5.9749
G1 X117.192 Y123.181 E6.2501
G1 X117.112 Y123.141 E6.2535
G1 X115.296 Y121.149 E6.3568
G1 X101.457 Y121.149 E6.8871
G1 X101.376 Y121.118 E6.8904
G1 X96.542 Y116.915 E7.1358
G1 X96.230 Y116.881 E7.1479
G1 X96.222 Y116.880 E7.1482
G1 X95.537 Y116.759 E7.1748
G1 X95.529 Y116.757 E7.1752
G1 X94.463 Y116.493 E7.2172
G1 X93.067 Y116.712 E7.2714
G1 X93.061 Y116.712 E7.2716
G1 X92.566 Y116.765 E7.2907
G1 X92.561 Y116.766 E7.2909
G1 X90.895 Y116.861 E7.3548
G1 X90.889 Y116.861 E7.3551
G1 X90.334 Y116.863 E7.3763
G1 X90.327 Y116.862 E7.3766
G1 X88.840 Y116.784 E7.4336
G1 X88.834 Y116.784 E7.4338
G1 X88.378 Y116.739 E7.4514
G1 X88.373 Y116.739 E7.4516
G1 X85.074 Y116.264 E7.5793
G1 X82.155 Y116.715 E7.6925
G1 X82.149 Y116.716 E7.6927
G1 X81.658 Y116.767 E7.7116
G1 X81.653 Y116.768 E7.7118
G1 X80.775 Y116.816 E7.7455
G1 X79.982 Y119.285 E7.8449
G1 X79.943 Y119.342 E7.8475
G1 X75.339 Y123.121 E8.0757
G1 X75.275 Y123.148 E8.0784
G1 X70.914 Y123.650 E8.2466
G1 X70.910 Y123.651 E8.2467
G1 X70.574 Y123.678 E8.2597
G1 X70.570 Y123.678 E8.2598
G1 X68.937 Y123.757 E8.3224
G1 X68.932 Y123.757 E8.3226
G1 X68.497 Y123.759 E8.3393
G1 X68.491 Y123.759 E8.3395
G1 X66.975 Y123.701 E8.3976
G1 X66.971 Y123.701 E8.3978
G1 X66.596 Y123.673 E8.4122
G1 X66.592 Y123.672 E8.4124
G1 X62.330 Y123.192 E8.5767
G1 X62.266 Y123.165 E8.5794
G1 X57.647 Y119.383 E8.8081
G1 X57.608 Y119.325 E8.8108
G1 X47.373 Y87.477 E10.0925
G1 X47.385 Y87.373 E10.0965
G1 X52.228 Y79.459 E10.4520
G1 X52.315 Y79.401 E10.4560
; inner perimeter
G1 X59.477 Y89.318 F4500
G92 E0
G1 X60.585 Y89.279 E0.0425 F2160
G1 X61.677 Y89.328 E0.0844
G1 X62.333 Y89.417 E0.1098
G1 X63.972 Y94.966 E0.3314
G1 X73.411 Y94.966 E0.6931
G1 X75.089 Y89.379 E0.9167
G1 X75.579 Y89.314 E0.9356
G1 X76.516 Y89.279 E0.9715
G1 X77.707 Y89.327 E1.0172
G1 X78.082 Y89.383 E1.0317
G1 X77.805 Y90.244 E1.0664
G1 X80.776 Y90.244 E1.1802
G1 X81.550 Y89.795 E1.2145
G1 X82.358 Y89.463 E1.2480
G1 X83.353 Y89.229 E1.2872
G1 X84.890 Y89.053 E1.3464
G1 X86.055 Y89.013 E1.3911
G1 X87.658 Y89.079 E1.4526
G1 X89.564 Y89.335 E1.5263
G1 X93.315 Y90.208 E1.6738
G1 X93.273 Y89.706 E1.6931
G1 X94.621 Y89.323 E1.7468
G1 X96.182 Y89.083 E1.8073
G1 X97.858 Y89.013 E1.8716
G1 X99.381 Y89.110 E1.9300
G1 X100.671 Y89.379 E1.9806
G1 X101.715 Y89.755 E2.0230
G1 X102.668 Y90.244 E2.0641
G1 X105.701 Y90.244 E2.1803
G1 X105.166 Y89.040 E2.2308
G1 X104.943 Y88.354 E2.2585
G1 X104.872 Y87.935 E2.2747
G1 X105.357 Y87.755 E2.2946
G1 X107.024 Y87.297 E2.3608
G1 X108.647 Y87.055 E2.4237
G1 X110.430 Y86.971 E2.4921
G1 X111.555 Y87.014 E2.5352
G1 X113.117 Y87.223 E2.5956
G1 X114.454 Y87.561 E2.6484
G1 X115.674 Y88.052 E2.6988
G1 X116.704 Y88.659 E2.7446
G1 X117.097 Y88.954 E2.7635
G1 X117.922 Y89.731 E2.8069
G1 X118.371 Y90.244 E2.8330
G1 X122.759 Y90.244 E3.0011
G1 X122.759 Y89.376 E3.0344
G1 X125.118 Y89.116 E3.1253
G1 X128.108 Y89.013 E3.2400
G1 X130.246 Y89.103 E3.3220
G1 X132.017 Y89.349 E3.3905
G1 X133.610 Y89.737 E3.4533
G1 X134.971 Y90.247 E3.5090
G1 X136.214 Y90.903 E3.5628
G1 X137.294 Y91.697 E3.6142
G1 X138.239 Y92.643 E3.6654
G1 X138.977 Y93.658 E3.7135
G1 X139.621 Y94.861 E3.7658
G1 X140.112 Y96.198 E3.8203
G1 X140.478 Y97.757 E3.8817
G1 X140.685 Y99.499 E3.9489
G1 X140.738 Y100.981 E4.0057
G1 X140.671 Y102.662 E4.0702
G1 X140.439 Y104.337 E4.1350
G1 X140.045 Y105.872 E4.1957
G1 X139.512 Y107.221 E4.2513
G1 X138.779 Y108.518 E4.3084
G1 X137.946 Y109.592 E4.3605
G1 X136.961 Y110.538 E4.4128
G1 X135.904 Y111.280 E4.4623
G1 X134.664 Y111.912 E4.5156
G1 X133.269 Y112.404 E4.5723
G1 X131.654 Y112.763 E4.6357
G1 X129.781 Y112.978 E4.7079
G1 X128.252 Y113.029 E4.7665
G1 X125.197 Y112.915 E4.8837
G1 X122.759 Y112.689 E4.9775
G1 X122.759 Y109.265 E5.1087
G1 X118.402 Y109.265 E5.2756
G1 X119.055 Y110.189 E5.3189
G1 X105.867 Y110.189 E5.8243
G1 X105.829 Y109.920 E5.8346
G1 X105.784 Y109.061 E5.8676
G1 X105.833 Y108.241 E5.8991
G1 X105.863 Y107.993 E5.9087
G1 X105.702 Y104.930 E6.0262
G1 X102.958 Y105.751 E6.1360
G1 X101.299 Y106.066 E6.2006
G1 X99.645 Y106.172 E6.2642
G1 X98.998 Y106.154 E6.2889
G1 X97.786 Y106.025 E6.3357
G1 X96.661 Y105.746 E6.3801
G1 X95.776 Y105.357 E6.4171
G1 X95.433 Y105.162 E6.4322
G1 X92.130 Y105.162 E6.5588
G1 X92.130 Y105.765 E6.5818
G1 X91.650 Y105.840 E6.6005
G1 X90.585 Y105.901 E6.6413
G1 X89.675 Y105.853 E6.6763
G1 X89.348 Y105.806 E6.6889
G1 X89.348 Y105.162 E6.7136
G1 X81.259 Y105.162 E7.0235
G1 X81.259 Y105.763 E7.0466
G1 X80.760 Y105.840 E7.0659
G1 X79.675 Y105.901 E7.1075
G1 X78.764 Y105.851 E7.1425
G1 X78.437 Y105.805 E7.1551
G1 X78.437 Y105.162 E7.1798
G1 X73.009 Y105.162 E7.3877
G1 X70.601 Y112.654 E7.6892
G1 X69.852 Y112.740 E7.7181
G1 X68.660 Y112.797 E7.7638
G1 X67.607 Y112.757 E7.8042
G1 X66.987 Y112.687 E7.8281
G1 X59.477 Y89.318 E8.7686
; outer perimeter
