; generated by Slic3r 1.2.9 on 2016-04-29 at 16:56:28

; external perimeters extrusion width = 0.40mm
; perimeters extrusion width = 0.67mm
; infill extrusion width = 0.67mm
; solid infill extrusion width = 0.67mm
; top infill extrusion width = 0.67mm

M107
M190 S60 ; set bed temperature
M104 S185 ; set temperature
G28 ; home all axes
G29 ; bed level


M109 S185 ; wait for temperature to be reached
G21 ; set units to millimeters
G90 ; use absolute coordinates
M82 ; use absolute distances for extrusion
G92 E0
G1 Z0.180 F7800.000
G1 E-0.80000 F2400.00000
G92 E0
G1 X70.216 Y70.868 F7800.000
G1 E0.80000 F2400.00000
G1 X71.957 Y69.459 E0.85387 F1800.000
G1 X75.000 Y68.679 E0.92941
G1 X125.000 Y68.679 E2.13191
G1 X127.204 Y69.075 E2.18578
G1 X129.132 Y70.216 E2.23965 F1800.000
G1 X130.541 Y71.957 E2.29352
G1 X131.321 Y75.000 E2.36906
G1 X131.321 Y85.000 E2.60956
G1 X130.925 Y87.204 E2.66343
G1 X129.470 Y89.470 E2.72817
G1 X89.470 Y129.470 E4.08864
G1 X87.630 Y130.748 E4.14251
G1 X85.000 Y131.321 E4.20726
G1 X75.000 Y131.321 E4.44776
G1 X72.796 Y130.925 E4.50163
G1 X70.868 Y129.784 E4.55550
G1 X69.459 Y128.043 E4.60937
G1 X68.679 Y125.000 E4.68491
G1 X68.679 Y75.000 E5.88741
G1 X69.075 Y72.796 E5.94128
G1 X70.186 Y70.920 E5.99370
G1 E5.19370 F2400.00000
G92 E0
G1 X76.999 Y116.999 F7800.000
G1 E0.80000 F2400.00000
G1 X83.001 Y116.999 E0.94437 F1800.000
G1 X83.001 Y123.001 E1.08873
G1 X76.999 Y123.001 E1.23310
G1 X76.999 Y117.059 E1.37602
G1 X77.320 Y117.320 F7800.000
G1 X82.680 Y117.320 E1.50493 F1800.000
G1 X82.680 Y122.680 E1.63384
G1 X77.320 Y122.680 E1.76274
G1 X77.320 Y117.380 E1.89021
G1 X77.320 Y116.920 F7800.000
G1 X77.320 Y115.501 F7800.000
G1 X76.999 Y115.501 E1.89794 F1800.000
G1 X76.999 Y84.499 E2.64355
G1 X83.001 Y84.499 E2.78792 F1800.000
G1 X83.001 Y115.501 E3.53353
G1 X77.380 Y115.501 E3.66872
G1 X77.380 Y115.180 F7800.000
G1 X77.320 Y115.180 E3.67017 F1800.000
G1 X77.320 Y84.820 E4.40032
G1 X82.680 Y84.820 E4.52923 F1800.000
G1 X82.680 Y115.180 E5.25939
G1 X77.440 Y115.180 E5.38541
G1 X77.350 Y115.232 F7800.000
G1 X77.440 Y83.001 F7800.000
G1 X76.999 Y83.001 E5.39602 F1800.000
G1 X76.999 Y76.999 E5.54039
G1 X83.001 Y76.999 E5.68476 F1800.000
G1 X83.001 Y83.001 E5.82912
G1 X77.500 Y83.001 E5.96143
G1 X77.500 Y82.680 F7800.000
G1 X77.320 Y82.680 E5.96576 F1800.000
G1 X77.320 Y77.320 E6.09467
G1 X82.680 Y77.320 E6.22357 F1800.000
G1 X82.680 Y82.680 E6.35248
G1 X77.560 Y82.680 E6.47562
G1 X77.410 Y82.836 F7800.000
G1 X84.499 Y82.680 F7800.000
G1 X84.499 Y76.999 E6.61225 F1800.000
G1 X115.501 Y76.999 E7.35787 F1800.000
G1 X115.501 Y83.001 E7.50223
G1 X84.499 Y83.001 E8.24785
G1 X84.499 Y82.740 E8.25413
G1 X84.820 Y82.680 F7800.000
G1 X84.820 Y77.320 E8.38304 F1800.000
G1 X115.180 Y77.320 E9.11320 F1800.000
G1 X115.180 Y82.680 E9.24211
G1 X84.880 Y82.680 E9.97082
G1 X84.420 Y82.680 F7800.000
G1 X116.999 Y82.680 F7800.000
G1 X116.999 Y76.999 E10.10746 F1800.000
G1 X123.001 Y76.999 E10.25182 F1800.000
G1 X123.001 Y83.001 E10.39619
G1 X116.999 Y83.001 E10.54055
G1 X116.999 Y82.740 E10.54684
G1 X117.320 Y82.680 F7800.000
G1 X117.320 Y77.320 E10.67575 F1800.000
G1 X122.680 Y77.320 E10.80465 F1800.000
G1 X122.680 Y82.680 E10.93356
G1 X117.380 Y82.680 E11.06103
G1 X116.920 Y82.680 F7800.000
G1 X123.500 Y83.500 F7800.000
G1 X123.500 Y83.750 F7800.000
G1 X123.707 Y83.707 F7800.000
G1 X124.000 Y84.000 F7800.000
G1 X124.499 Y79.850 F7800.000
G1 X124.499 Y84.499 E11.17282 F1800.000
G1 X84.499 Y84.499 E12.13482 F1800.000
G1 X84.499 Y124.499 E13.09681
G1 X75.501 Y124.499 E13.31320
G1 X75.501 Y75.501 E14.49158
G1 X124.499 Y75.501 E15.66996
G1 X124.499 Y79.790 E15.77311
G1 X124.820 Y79.790 F7800.000
G1 X124.820 Y84.820 E15.89407 F1800.000
G1 X84.820 Y84.820 E16.85607 F1800.000
G1 X84.820 Y124.820 E17.81807
G1 X75.180 Y124.820 E18.04991
G1 X75.180 Y75.180 E19.24375
G1 X124.820 Y75.180 E20.43759
G1 X124.820 Y79.730 E20.54702
G1 X124.474 Y79.990 F7800.000
G1 X123.186 Y77.010 F7800.000
G1 X124.314 Y78.137 E20.58540 F1800.000
G1 X124.314 Y78.592 E20.59636
G1 X123.186 Y77.465 E20.63474
G1 X123.186 Y77.920 E20.64569
G1 X124.314 Y79.047 E20.68407
G1 X124.314 Y79.502 E20.69502
G1 X123.186 Y78.375 E20.73340
G1 X123.186 Y78.830 E20.74435
G1 X124.314 Y79.957 E20.78273
G1 X124.314 Y80.412 E20.79368
G1 X123.186 Y79.285 E20.83206
G1 X123.186 Y79.740 E20.84302
G1 X124.314 Y80.867 E20.88140
G1 X124.314 Y81.322 E20.89235
G1 X123.186 Y80.195 E20.93073
G1 X123.186 Y80.650 E20.94168
G1 X124.314 Y81.777 E20.98006
G1 X124.314 Y82.232 E20.99101
G1 X123.186 Y81.105 E21.02939
G1 X123.186 Y81.559 E21.04035
G1 X124.314 Y82.687 E21.07873
G1 X124.314 Y83.142 E21.08968
G1 X123.186 Y82.014 E21.12806
G1 X123.186 Y82.469 E21.13901
G1 X124.314 Y83.597 E21.17739
G1 X124.314 Y84.052 E21.18834
G1 X123.186 Y82.924 E21.22672
G1 X122.993 Y83.186 F7800.000
G1 X124.121 Y84.314 E21.26510 F1800.000
G1 X123.666 Y84.314 E21.27605
G1 X122.539 Y83.186 E21.31443
G1 X122.084 Y83.186 E21.32539
G1 X123.211 Y84.314 E21.36377
G1 X122.756 Y84.314 E21.37472
G1 X121.629 Y83.186 E21.41310
G1 X121.174 Y83.186 E21.42405
G1 X122.301 Y84.314 E21.46243
G1 X121.846 Y84.314 E21.47338
G1 X120.719 Y83.186 E21.51176
G1 X120.264 Y83.186 E21.52271
G1 X121.391 Y84.314 E21.56109
G1 X120.936 Y84.314 E21.57205
G1 X119.809 Y83.186 E21.61043
G1 X119.354 Y83.186 E21.62138
G1 X120.481 Y84.314 E21.65976
G1 X120.026 Y84.314 E21.67071
G1 X118.899 Y83.186 E21.70909
G1 X118.444 Y83.186 E21.72004
G1 X119.571 Y84.314 E21.75842
G1 X119.116 Y84.314 E21.76938
G1 X117.989 Y83.186 E21.80776
G1 X117.534 Y83.186 E21.81871
G1 X118.661 Y84.314 E21.85709
G1 X118.207 Y84.314 E21.86804
G1 X117.079 Y83.186 E21.90642
G1 X116.814 Y82.921 F7800.000
G1 X115.686 Y81.793 E21.94480 F1800.000
G1 X115.686 Y82.248 E21.95575
G1 X117.752 Y84.314 E22.02607
G1 X117.297 Y84.314 E22.03702
G1 X115.686 Y82.703 E22.09184
G1 X115.686 Y83.158 E22.10279
G1 X116.842 Y84.314 E22.14213
G1 X116.387 Y84.314 E22.15308
G1 X115.259 Y83.186 E22.19146
G1 X114.805 Y83.186 E22.20241
G1 X115.932 Y84.314 E22.24079
G1 X115.477 Y84.314 E22.25175
G1 X114.350 Y83.186 E22.29013
G1 X113.895 Y83.186 E22.30108
G1 X115.022 Y84.314 E22.33946
G1 X114.567 Y84.314 E22.35041
G1 X113.440 Y83.186 E22.38879
G1 X112.985 Y83.186 E22.39974
G1 X114.112 Y84.314 E22.43812
G1 X113.657 Y84.314 E22.44908
G1 X112.530 Y83.186 E22.48746
G1 X112.075 Y83.186 E22.49841
G1 X113.202 Y84.314 E22.53679
G1 X112.747 Y84.314 E22.54774
G1 X111.620 Y83.186 E22.58612
G1 X111.165 Y83.186 E22.59707
G1 X112.292 Y84.314 E22.63545
G1 X111.837 Y84.314 E22.64640
G1 X110.710 Y83.186 E22.68478
G1 X110.255 Y83.186 E22.69574
G1 X111.382 Y84.314 E22.73412
G1 X110.928 Y84.314 E22.74507
G1 X109.800 Y83.186 E22.78345
G1 X109.345 Y83.186 E22.79440
G1 X110.473 Y84.314 E22.83278
G1 X110.018 Y84.314 E22.84373
G1 X108.890 Y83.186 E22.88211
G1 X108.435 Y83.186 E22.89307
G1 X109.563 Y84.314 E22.93145
G1 X109.108 Y84.314 E22.94240
G1 X107.980 Y83.186 E22.98078
G1 X107.526 Y83.186 E22.99173
G1 X108.653 Y84.314 E23.03011
G1 X108.198 Y84.314 E23.04106
G1 X107.071 Y83.186 E23.07944
G1 X106.616 Y83.186 E23.09039
G1 X107.743 Y84.314 E23.12877
G1 X107.288 Y84.314 E23.13973
G1 X106.161 Y83.186 E23.17811
G1 X105.706 Y83.186 E23.18906
G1 X106.833 Y84.314 E23.22744
G1 X106.378 Y84.314 E23.23839
G1 X105.251 Y83.186 E23.27677
G1 X104.796 Y83.186 E23.28772
G1 X105.923 Y84.314 E23.32610
G1 X105.468 Y84.314 E23.33705
G1 X104.341 Y83.186 E23.37543
G1 X103.886 Y83.186 E23.38639
G1 X105.013 Y84.314 E23.42477
G1 X104.558 Y84.314 E23.43572
G1 X103.431 Y83.186 E23.47410
G1 X102.976 Y83.186 E23.48505
G1 X104.103 Y84.314 E23.52343
G1 X103.648 Y84.314 E23.53438
G1 X102.521 Y83.186 E23.57276
G1 X102.066 Y83.186 E23.58372
G1 X103.194 Y84.314 E23.62210
G1 X102.739 Y84.314 E23.63305
G1 X101.611 Y83.186 E23.67143
G1 X101.156 Y83.186 E23.68238
G1 X102.284 Y84.314 E23.72076
G1 X101.829 Y84.314 E23.73171
G1 X100.701 Y83.186 E23.77009
G1 X100.246 Y83.186 E23.78104
G1 X101.374 Y84.314 E23.81942
G1 X100.919 Y84.314 E23.83038
G1 X99.792 Y83.186 E23.86876
G1 X99.337 Y83.186 E23.87971
G1 X100.464 Y84.314 E23.91809
G1 X100.009 Y84.314 E23.92904
G1 X98.882 Y83.186 E23.96742
G1 X98.427 Y83.186 E23.97837
G1 X99.554 Y84.314 E24.01675
G1 X99.099 Y84.314 E24.02770
G1 X97.972 Y83.186 E24.06608
G1 X97.517 Y83.186 E24.07704
G1 X98.644 Y84.314 E24.11542
G1 X98.189 Y84.314 E24.12637
G1 X97.062 Y83.186 E24.16475
G1 X96.607 Y83.186 E24.17570
G1 X97.734 Y84.314 E24.21408
G1 X97.279 Y84.314 E24.22503
G1 X96.152 Y83.186 E24.26341
G1 X95.697 Y83.186 E24.27437
G1 X96.824 Y84.314 E24.31275
G1 X96.369 Y84.314 E24.32370
G1 X95.242 Y83.186 E24.36208
G1 X94.787 Y83.186 E24.37303
G1 X95.915 Y84.314 E24.41141
G1 X95.460 Y84.314 E24.42236
G1 X94.332 Y83.186 E24.46074
G1 X93.877 Y83.186 E24.47169
G1 X95.005 Y84.314 E24.51007
G1 X94.550 Y84.314 E24.52103
G1 X93.422 Y83.186 E24.55941
G1 X92.967 Y83.186 E24.57036
G1 X94.095 Y84.314 E24.60874
G1 X93.640 Y84.314 E24.61969
G1 X92.513 Y83.186 E24.65807
G1 X92.058 Y83.186 E24.66902
G1 X93.185 Y84.314 E24.70740
G1 X92.730 Y84.314 E24.71836
G1 X91.603 Y83.186 E24.75674
G1 X91.148 Y83.186 E24.76769
G1 X92.275 Y84.314 E24.80607
G1 X91.820 Y84.314 E24.81702
G1 X90.693 Y83.186 E24.85540
G1 X90.238 Y83.186 E24.86635
G1 X91.365 Y84.314 E24.90473
G1 X90.910 Y84.314 E24.91568
G1 X89.783 Y83.186 E24.95406
G1 X89.328 Y83.186 E24.96502
G1 X90.455 Y84.314 E25.00340
G1 X90.000 Y84.314 E25.01435
G1 X88.873 Y83.186 E25.05273
G1 X88.418 Y83.186 E25.06368
G1 X89.545 Y84.314 E25.10206
G1 X89.090 Y84.314 E25.11301
G1 X87.963 Y83.186 E25.15139
G1 X87.508 Y83.186 E25.16234
G1 X88.635 Y84.314 E25.20072
G1 X88.181 Y84.314 E25.21168
G1 X87.053 Y83.186 E25.25006
G1 X86.598 Y83.186 E25.26101
G1 X87.726 Y84.314 E25.29939
G1 X87.271 Y84.314 E25.31034
G1 X86.143 Y83.186 E25.34872
G1 X85.688 Y83.186 E25.35967
G1 X86.816 Y84.314 E25.39805
G1 X86.361 Y84.314 E25.40901
G1 X85.233 Y83.186 E25.44739
G1 X84.779 Y83.186 E25.45834
G1 X85.906 Y84.314 E25.49672
G1 X85.451 Y84.314 E25.50767
G1 X83.186 Y82.049 E25.58477
G1 X83.186 Y82.504 E25.59572
G1 X84.996 Y84.314 E25.65733
G1 X84.541 Y84.314 E25.66828
G1 X83.186 Y82.959 E25.71440
G1 X82.959 Y83.186 F7800.000
G1 X84.314 Y84.541 E25.76053 F1800.000
G1 X84.314 Y84.996 E25.77148
G1 X82.504 Y83.186 E25.83310
G1 X82.049 Y83.186 E25.84405
G1 X84.314 Y85.451 E25.92116
G1 X84.314 Y85.906 E25.93211
G1 X83.186 Y84.779 E25.97049
G1 X83.186 Y85.234 E25.98144
G1 X84.314 Y86.361 E26.01982
G1 X84.314 Y86.816 E26.03077
G1 X83.186 Y85.689 E26.06915
G1 X83.186 Y86.144 E26.08011
G1 X84.314 Y87.271 E26.11849
G1 X84.314 Y87.726 E26.12944
G1 X83.186 Y86.598 E26.16782
G1 X83.186 Y87.053 E26.17877
G1 X84.314 Y88.181 E26.21715
G1 X84.314 Y88.636 E26.22810
G1 X83.186 Y87.508 E26.26648
G1 X83.186 Y87.963 E26.27743
G1 X84.314 Y89.091 E26.31581
G1 X84.314 Y89.546 E26.32677
G1 X83.186 Y88.418 E26.36515
G1 X83.186 Y88.873 E26.37610
G1 X84.314 Y90.001 E26.41448
G1 X84.314 Y90.455 E26.42543
G1 X83.186 Y89.328 E26.46381
G1 X83.186 Y89.783 E26.47476
G1 X84.314 Y90.910 E26.51314
G1 X84.314 Y91.365 E26.52409
G1 X83.186 Y90.238 E26.56247
G1 X83.186 Y90.693 E26.57343
G1 X84.314 Y91.820 E26.61181
G1 X84.314 Y92.275 E26.62276
G1 X83.186 Y91.148 E26.66114
G1 X83.186 Y91.603 E26.67209
G1 X84.314 Y92.730 E26.71047
G1 X84.314 Y93.185 E26.72142
G1 X83.186 Y92.058 E26.75980
G1 X83.186 Y92.513 E26.77075
G1 X84.314 Y93.640 E26.80913
G1 X84.314 Y94.095 E26.82009
G1 X83.186 Y92.968 E26.85847
G1 X83.186 Y93.423 E26.86942
G1 X84.314 Y94.550 E26.90780
G1 X84.314 Y95.005 E26.91875
G1 X83.186 Y93.878 E26.95713
G1 X83.186 Y94.332 E26.96808
G1 X84.314 Y95.460 E27.00646
G1 X84.314 Y95.915 E27.01742
G1 X83.186 Y94.787 E27.05580
G1 X83.186 Y95.242 E27.06675
G1 X84.314 Y96.370 E27.10513
G1 X84.314 Y96.825 E27.11608
G1 X83.186 Y95.697 E27.15446
G1 X83.186 Y96.152 E27.16541
G1 X84.314 Y97.280 E27.20379
G1 X84.314 Y97.734 E27.21474
G1 X83.186 Y96.607 E27.25312
G1 X83.186 Y97.062 E27.26408
G1 X84.314 Y98.189 E27.30246
G1 X84.314 Y98.644 E27.31341
G1 X83.186 Y97.517 E27.35179
G1 X83.186 Y97.972 E27.36274
G1 X84.314 Y99.099 E27.40112
G1 X84.314 Y99.554 E27.41207
G1 X83.186 Y98.427 E27.45045
G1 X83.186 Y98.882 E27.46140
G1 X84.314 Y100.009 E27.49978
G1 X84.314 Y100.464 E27.51074
G1 X83.186 Y99.337 E27.54912
G1 X83.186 Y99.792 E27.56007
G1 X84.314 Y100.919 E27.59845
G1 X84.314 Y101.374 E27.60940
G1 X83.186 Y100.247 E27.64778
G1 X83.186 Y100.702 E27.65873
G1 X84.314 Y101.829 E27.69711
G1 X84.314 Y102.284 E27.70807
G1 X83.186 Y101.157 E27.74645
G1 X83.186 Y101.611 E27.75740
G1 X84.314 Y102.739 E27.79578
G1 X84.314 Y103.194 E27.80673
G1 X83.186 Y102.066 E27.84511
G1 X83.186 Y102.521 E27.85606
G1 X84.314 Y103.649 E27.89444
G1 X84.314 Y104.104 E27.90539
G1 X83.186 Y102.976 E27.94377
G1 X83.186 Y103.431 E27.95473
G1 X84.314 Y104.559 E27.99311
G1 X84.314 Y105.014 E28.00406
G1 X83.186 Y103.886 E28.04244
G1 X83.186 Y104.341 E28.05339
G1 X84.314 Y105.468 E28.09177
G1 X84.314 Y105.923 E28.10272
G1 X83.186 Y104.796 E28.14110
G1 X83.186 Y105.251 E28.15205
G1 X84.314 Y106.378 E28.19043
G1 X84.314 Y106.833 E28.20139
G1 X83.186 Y105.706 E28.23977
G1 X83.186 Y106.161 E28.25072
G1 X84.314 Y107.288 E28.28910
G1 X84.314 Y107.743 E28.30005
G1 X83.186 Y106.616 E28.33843
G1 X83.186 Y107.071 E28.34938
G1 X84.314 Y108.198 E28.38776
G1 X84.314 Y108.653 E28.39872
G1 X83.186 Y107.526 E28.43710
G1 X83.186 Y107.981 E28.44805
G1 X84.314 Y109.108 E28.48643
G1 X84.314 Y109.563 E28.49738
G1 X83.186 Y108.436 E28.53576
G1 X83.186 Y108.891 E28.54671
G1 X84.314 Y110.018 E28.58509
G1 X84.314 Y110.473 E28.59604
G1 X83.186 Y109.345 E28.63442
G1 X83.186 Y109.800 E28.64538
G1 X84.314 Y110.928 E28.68376
G1 X84.314 Y111.383 E28.69471
G1 X83.186 Y110.255 E28.73309
G1 X83.186 Y110.710 E28.74404
G1 X84.314 Y111.838 E28.78242
G1 X84.314 Y112.293 E28.79337
G1 X83.186 Y111.165 E28.83175
G1 X83.186 Y111.620 E28.84270
G1 X84.314 Y112.747 E28.88108
G1 X84.314 Y113.202 E28.89204
G1 X83.186 Y112.075 E28.93042
G1 X83.186 Y112.530 E28.94137
G1 X84.314 Y113.657 E28.97975
G1 X84.314 Y114.112 E28.99070
G1 X83.186 Y112.985 E29.02908
G1 X83.186 Y113.440 E29.04003
G1 X84.314 Y114.567 E29.07841
G1 X84.314 Y115.022 E29.08937
G1 X83.186 Y113.895 E29.12775
G1 X83.186 Y114.350 E29.13870
G1 X84.314 Y115.477 E29.17708
G1 X84.314 Y115.932 E29.18803
G1 X83.186 Y114.805 E29.22641
G1 X83.186 Y115.260 E29.23736
G1 X84.314 Y116.387 E29.27574
G1 X84.314 Y116.842 E29.28669
G1 X83.158 Y115.686 E29.32604
G1 X82.703 Y115.686 E29.33699
G1 X84.314 Y117.297 E29.39182
G1 X84.314 Y117.752 E29.40277
G1 X82.248 Y115.686 E29.47309
G1 X81.793 Y115.686 E29.48405
G1 X82.921 Y116.814 E29.52243
G1 X83.186 Y117.079 F7800.000
G1 X84.314 Y118.207 E29.56081 F1800.000
G1 X84.314 Y118.662 E29.57176
G1 X83.186 Y117.534 E29.61014
G1 X83.186 Y117.989 E29.62109
G1 X84.314 Y119.117 E29.65947
G1 X84.314 Y119.572 E29.67042
G1 X83.186 Y118.444 E29.70880
G1 X83.186 Y118.899 E29.71975
G1 X84.314 Y120.027 E29.75813
G1 X84.314 Y120.481 E29.76909
G1 X83.186 Y119.354 E29.80747
G1 X83.186 Y119.809 E29.81842
G1 X84.314 Y120.936 E29.85680
G1 X84.314 Y121.391 E29.86775
G1 X83.186 Y120.264 E29.90613
G1 X83.186 Y120.719 E29.91708
G1 X84.314 Y121.846 E29.95546
G1 X84.314 Y122.301 E29.96641
G1 X83.186 Y121.174 E30.00479
G1 X83.186 Y121.629 E30.01575
G1 X84.314 Y122.756 E30.05413
G1 X84.314 Y123.211 E30.06508
G1 X83.186 Y122.084 E30.10346
G1 X83.186 Y122.539 E30.11441
G1 X84.314 Y123.666 E30.15279
G1 X84.314 Y124.121 E30.16374
G1 X83.186 Y122.994 E30.20212
G1 X82.924 Y123.186 F7800.000
G1 X84.051 Y124.314 E30.24050 F1800.000
G1 X83.596 Y124.314 E30.25146
G1 X82.469 Y123.186 E30.28984
G1 X82.014 Y123.186 E30.30079
G1 X83.142 Y124.314 E30.33917
G1 X82.687 Y124.314 E30.35012
G1 X81.559 Y123.186 E30.38850
G1 X81.104 Y123.186 E30.39945
G1 X82.232 Y124.314 E30.43783
G1 X81.777 Y124.314 E30.44878
G1 X80.649 Y123.186 E30.48716
G1 X80.194 Y123.186 E30.49812
G1 X81.322 Y124.314 E30.53650
G1 X80.867 Y124.314 E30.54745
G1 X79.740 Y123.186 E30.58583
G1 X79.285 Y123.186 E30.59678
G1 X80.412 Y124.314 E30.63516
G1 X79.957 Y124.314 E30.64611
G1 X78.830 Y123.186 E30.68449
G1 X78.375 Y123.186 E30.69544
