; G-Code generated by Simplify3D(R) Version 3.0.2
; Feb 3, 2016 at 11:12:14 AM
; Settings Summary
;   processName,Process1
;   applyToModels,calibration_angle
;   profileName,i3 - V6 (modified)
;   profileVersion,2015-12-23 01:27:31
;   baseProfile,Default (modified)
;   printMaterial,
;   printQuality,
;   printExtruders,
;   extruderName,Primary Extruder
;   extruderToolheadNumber,0
;   extruderDiameter,0.4
;   extruderAutoWidth,1
;   extruderWidth,0.48
;   extrusionMultiplier,0.96
;   extruderUseRetract,1
;   extruderRetractionDistance,0.8
;   extruderExtraRestartDistance,0
;   extruderRetractionZLift,0
;   extruderRetractionSpeed,1800
;   extruderUseCoasting,0
;   extruderCoastingDistance,0.2
;   extruderUseWipe,0
;   extruderWipeDistance,5
;   primaryExtruder,0
;   layerHeight,0.2
;   topSolidLayers,3
;   bottomSolidLayers,3
;   perimeterOutlines,3
;   printPerimetersInsideOut,0
;   startPointOption,2
;   startPointOriginX,0
;   startPointOriginY,0
;   startPointOriginZ,300
;   sequentialIslands,0
;   spiralVaseMode,0
;   firstLayerHeightPercentage,90
;   firstLayerWidthPercentage,100
;   firstLayerUnderspeed,0.3
;   useRaft,0
;   raftExtruder,0
;   raftLayers,2
;   raftOffset,2.4
;   raftSeparationDistance,0.28
;   raftInfill,85
;   disableRaftBaseLayers,1
;   useSkirt,1
;   skirtExtruder,0
;   skirtLayers,1
;   skirtOutlines,2
;   skirtOffset,5
;   usePrimePillar,0
;   primePillarExtruder,999
;   primePillarWidth,12
;   primePillarLocation,7
;   primePillarSpeedMultiplier,1
;   useOozeShield,0
;   oozeShieldExtruder,999
;   oozeShieldOffset,2
;   oozeShieldOutlines,1
;   oozeShieldSidewallShape,1
;   oozeShieldSidewallAngle,30
;   oozeShieldSpeedMultiplier,1
;   infillExtruder,0
;   internalInfillPattern,Rectilinear
;   externalInfillPattern,Rectilinear
;   infillPercentage,25
;   outlineOverlapPercentage,15
;   infillExtrusionWidthPercentage,100
;   minInfillLength,5
;   infillLayerInterval,1
;   infillAngles,45,-45
;   overlapInfillAngles,0
;   generateSupport,1
;   supportExtruder,0
;   supportInfillPercentage,30
;   supportExtraInflation,0
;   denseSupportLayers,0
;   denseSupportInfillPercentage,70
;   supportLayerInterval,1
;   supportHorizontalPartOffset,0.3
;   supportUpperSeparationLayers,1
;   supportLowerSeparationLayers,1
;   supportType,0
;   supportGridSpacing,4
;   maxOverhangAngle,45
;   supportAngles,0
;   temperatureName,Primary Extruder,Heated Bed
;   temperatureNumber,0,1
;   temperatureSetpointCount,1,1
;   temperatureSetpointLayers,1,1
;   temperatureSetpointTemperatures,185,60
;   temperatureStabilizeAtStartup,1,1
;   temperatureHeatedBed,0,1
;   temperatureRelayBetweenLayers,0,0
;   temperatureRelayBetweenLoops,0,0
;   fanLayers,1,5
;   fanSpeeds,0,0
;   blipFanToFullPower,1
;   adjustSpeedForCooling,1
;   minSpeedLayerTime,45
;   minCoolingSpeedSlowdown,75
;   increaseFanForCooling,0
;   minFanLayerTime,45
;   maxCoolingFanSpeed,55
;   increaseFanForBridging,0
;   bridgingFanSpeed,55
;   use5D,1
;   relativeEdistances,0
;   allowEaxisZeroing,1
;   independentExtruderAxes,0
;   includeM10123,0
;   stickySupport,1
;   applyToolheadOffsets,0
;   gcodeXoffset,0
;   gcodeYoffset,0
;   gcodeZoffset,0
;   overrideMachineDefinition,1
;   machineTypeOverride,0
;   strokeXoverride,200
;   strokeYoverride,200
;   strokeZoverride,200
;   originOffsetXoverride,0
;   originOffsetYoverride,0
;   originOffsetZoverride,0
;   homeXdirOverride,-1
;   homeYdirOverride,-1
;   homeZdirOverride,-1
;   flipXoverride,1
;   flipYoverride,-1
;   flipZoverride,1
;   toolheadOffsets,0,0|0,0|0,0|0,0|0,0|0,0
;   overrideFirmwareConfiguration,1
;   firmwareTypeOverride,RepRap (Marlin/Repetier/Sprinter)
;   GPXconfigOverride,r2
;   baudRateOverride,250000
;   overridePrinterModels,1
;   printerModelsOverride
;   startingGcode,G28 ; home all axes,G29 P3 F85 B115 L85 R115; bed level
;   layerChangeGcode,
;   retractionGcode,
;   toolChangeGcode,
;   endingGcode,M104 S0 ; turn off extruder,M140 S0 ; turn off bed,G28 X0 ; home X axis,M84 ; disable motors,M107; print fan off
;   createX3G,0
;   celebration,0
;   celebrationSong,Random Song
;   createMB5G,0
;   postProcessing,
;   defaultSpeed,3000
;   outlineUnderspeed,0.5
;   solidInfillUnderspeed,0.8
;   supportUnderspeed,0.8
;   rapidXYspeed,4800
;   rapidZspeed,1000
;   minBridgingArea,50
;   bridgingExtraInflation,0
;   bridgingExtrusionMultiplier,1
;   bridgingSpeedMultiplier,1
;   filamentDiameter,1.75
;   filamentPricePerKg,80
;   filamentDensity,1.25
;   useMinPrintHeight,0
;   minPrintHeight,0
;   useMaxPrintHeight,0
;   maxPrintHeight,0
;   useDiaphragm,0
;   diaphragmLayerInterval,20
;   robustSlicing,1
;   mergeAllIntoSolid,0
;   onlyRetractWhenCrossingOutline,1
;   retractBetweenLayers,1
;   useRetractionMinTravel,0
;   retractionMinTravel,3
;   retractWhileWiping,1
;   onlyWipeOutlines,1
;   avoidCrossingOutline,1
;   maxMovementDetourFactor,4
;   toolChangeRetractionDistance,12
;   toolChangeExtraRestartDistance,-0.5
;   toolChangeRetractionSpeed,600
;   allowThinWallGapFill,1
;   thinWallAllowedOverlapPercentage,10
;   horizontalSizeCompensation,0
G90
M82
M106 S0
M140 S60
M190 S60
M104 S185 T0
M109 S185 T0
G28 ; home all axes
G29
G92 E0
G1 E-0.8000 F1800
G1 Z0.180 F1000
; layer 1, Z = 0.18
T0
; tool H0.200 W0.480
; skirt
G1 X69.390 Y72.521 F4800
G1 E0.0000 F540
G92 E0
G1 X72.521 Y69.390 E0.1697 F2250
G1 X72.786 Y69.280 E0.1807
G1 X127.214 Y69.280 E2.2661
G1 X127.479 Y69.390 E2.2771
G1 X130.610 Y72.521 E2.4468
G1 X130.720 Y72.786 E2.4578
G1 X130.720 Y87.214 E3.0106
G1 X130.610 Y87.479 E3.0216
G1 X127.479 Y90.610 E3.1913
G1 X127.214 Y90.720 E3.2022
G1 X90.720 Y90.720 E4.6005
G1 X90.720 Y127.214 E5.9988
G1 X90.610 Y127.479 E6.0098
G1 X87.479 Y130.610 E6.1795
G1 X87.214 Y130.720 E6.1905
G1 X72.786 Y130.720 E6.7433
G1 X72.521 Y130.610 E6.7543
G1 X69.390 Y127.479 E6.9240
G1 X69.280 Y127.214 E6.9349
G1 X69.280 Y72.786 E9.0204
G1 X69.390 Y72.521 E9.0314
G1 X69.797 Y72.793 F4800
G92 E0
G1 X72.793 Y69.797 E0.1624 F2250
G1 X72.881 Y69.760 E0.1660
G1 X127.119 Y69.760 E2.2442
G1 X127.207 Y69.797 E2.2478
G1 X130.203 Y72.793 E2.4102
G1 X130.240 Y72.881 E2.4139
G1 X130.240 Y87.119 E2.9594
G1 X130.203 Y87.207 E2.9630
G1 X127.207 Y90.203 E3.1254
G1 X127.119 Y90.240 E3.1291
G1 X90.240 Y90.240 E4.5421
G1 X90.240 Y127.119 E5.9551
G1 X90.203 Y127.207 E5.9588
G1 X87.207 Y130.203 E6.1212
G1 X87.119 Y130.240 E6.1248
G1 X72.881 Y130.240 E6.6703
G1 X72.793 Y130.203 E6.6740
G1 X69.797 Y127.207 E6.8364
G1 X69.760 Y127.119 E6.8400
G1 X69.760 Y72.881 E8.9182
G1 X69.797 Y72.793 E8.9218
; outer perimeter
G1 X75.240 Y75.240 F4800
G92 E0
G1 X124.760 Y75.240 E1.8974 F1125
G1 X124.760 Y84.760 E2.2622
G1 X84.760 Y84.760 E3.7948
G1 X84.760 Y124.760 E5.3274
G1 X75.240 Y124.760 E5.6922
G1 X75.240 Y75.240 E7.5896
; inner perimeter
G1 X75.720 Y75.720 F4800
G92 E0
G1 X124.280 Y75.720 E1.8606 F1500
G1 X124.280 Y84.280 E2.1886
G1 X84.280 Y84.280 E3.7212
G1 X84.280 Y124.280 E5.2538
G1 X75.720 Y124.280 E5.5818
G1 X75.720 Y75.720 E7.4424
; inner perimeter
; outer perimeter
G1 X77.260 Y77.260 F4800
G92 E0
G1 X77.260 Y82.740 E0.2100 F1125
G1 X82.740 Y82.740 E0.4199
G1 X82.740 Y77.260 E0.6299
G1 X77.260 Y77.260 E0.8399
; inner perimeter
G1 X76.780 Y76.780 F4800
G92 E0
G1 X76.780 Y83.220 E0.2468 F1500
G1 X83.220 Y83.220 E0.4935
G1 X83.220 Y76.780 E0.7403
G1 X76.780 Y76.780 E0.9870
; inner perimeter
; outer perimeter
G1 X77.260 Y84.760 F4800
G92 E0
G1 X77.260 Y115.240 E1.1679 F1125
G1 X82.740 Y115.240 E1.3778
G1 X82.740 Y84.760 E2.5457
G1 X77.260 Y84.760 E2.7557
; inner perimeter
G1 X76.780 Y84.280 F4800
G92 E0
G1 X76.780 Y115.720 E1.2046 F1500
G1 X83.220 Y115.720 E1.4514
G1 X83.220 Y84.280 E2.6560
G1 X76.780 Y84.280 E2.9028
; inner perimeter
; outer perimeter
G1 X78.536 Y82.735 F4800
G1 X82.735 Y82.735 F4800
G1 X82.735 Y79.041 F4800
G1 X84.760 Y77.260 F4800
G92 E0
G1 X84.760 Y82.740 E0.2100 F1125
G1 X115.240 Y82.740 E1.3778
G1 X115.240 Y77.260 E1.5878
G1 X84.760 Y77.260 E2.7557
; inner perimeter
G1 X84.280 Y76.780 F4800
G92 E0
G1 X84.280 Y83.220 E0.2468 F1500
G1 X115.720 Y83.220 E1.4514
G1 X115.720 Y76.780 E1.6982
G1 X84.280 Y76.780 E2.9028
; inner perimeter
; outer perimeter
G1 X117.260 Y77.260 F4800
G92 E0
G1 X117.260 Y82.740 E0.2100 F1125
G1 X122.740 Y82.740 E0.4199
G1 X122.740 Y77.260 E0.6299
G1 X117.260 Y77.260 E0.8399
; inner perimeter
G1 X116.780 Y76.780 F4800
G92 E0
G1 X116.780 Y83.220 E0.2468 F1500
G1 X123.220 Y83.220 E0.4935
G1 X123.220 Y76.780 E0.7403
G1 X116.780 Y76.780 E0.9870
G92 E0
G1 E-0.8000 F1800
; inner perimeter
; outer perimeter
G1 X108.985 Y84.765 F4800
G1 X84.765 Y84.765 F4800
G1 X84.765 Y109.573 F4800
G1 X82.735 Y111.652 F4800
G1 X82.735 Y115.235 F4800
G1 X79.237 Y115.235 F4800
G1 X77.260 Y117.260 F4800
G1 E0.0000 F1800
G92 E0
G1 X77.260 Y122.740 E0.2100 F1125
G1 X82.740 Y122.740 E0.4199
G1 X82.740 Y117.260 E0.6299
G1 X77.260 Y117.260 E0.8399
; inner perimeter
G1 X76.780 Y116.780 F4800
G92 E0
G1 X76.780 Y123.220 E0.2468 F1500
G1 X83.220 Y123.220 E0.4935
G1 X83.220 Y116.780 E0.7403
G1 X76.780 Y116.780 E0.9870
; inner perimeter
; gap fill
G1 X77.079 Y116.133 F4800
G92 E0
G1 X76.845 Y116.367 E0.0127 F2250
G1 X77.523 Y116.367 E0.0387
G1 X77.758 Y116.133 E0.0514
G1 X78.437 Y116.133 E0.0774
G1 X78.202 Y116.367 E0.0901
G1 X78.881 Y116.367 E0.1161
G1 X79.115 Y116.133 E0.1288
G1 X79.794 Y116.133 E0.1548
G1 X79.560 Y116.367 E0.1675
G1 X80.239 Y116.367 E0.1936
G1 X80.473 Y116.133 E0.2063
G1 X81.152 Y116.133 E0.2323
G1 X80.918 Y116.367 E0.2450
G1 X81.596 Y116.367 E0.2710
G1 X81.831 Y116.133 E0.2837
G1 X82.510 Y116.133 E0.3097
G1 X82.275 Y116.367 E0.3224
G1 X82.954 Y116.367 E0.3484
G1 X83.188 Y116.133 E0.3611
G1 X83.633 Y116.133 E0.3781
G1 X83.633 Y115.688 E0.3952
G1 X83.867 Y115.454 E0.4079
G1 X83.867 Y114.775 E0.4339
G1 X83.633 Y115.010 E0.4466
G1 X83.633 Y114.331 E0.4726
G1 X83.867 Y114.096 E0.4853
G1 X83.867 Y113.418 E0.5113
G1 X83.633 Y113.652 E0.5240
G1 X83.633 Y112.973 E0.5500
G1 X83.867 Y112.739 E0.5627
G1 X83.867 Y112.060 E0.5887
G1 X83.633 Y112.294 E0.6014
G1 X83.633 Y111.615 E0.6274
G1 X83.867 Y111.381 E0.6401
G1 X83.867 Y110.702 E0.6661
G1 X83.633 Y110.937 E0.6788
G1 X83.633 Y110.258 E0.7048
G1 X83.867 Y110.023 E0.7175
G1 X83.867 Y109.345 E0.7436
G1 X83.633 Y109.579 E0.7563
G1 X83.633 Y108.900 E0.7823
G1 X83.867 Y108.666 E0.7950
G1 X83.867 Y107.987 E0.8210
G1 X83.633 Y108.221 E0.8337
G1 X83.633 Y107.543 E0.8597
G1 X83.867 Y107.308 E0.8724
G1 X83.867 Y106.629 E0.8984
G1 X83.633 Y106.864 E0.9111
G1 X83.633 Y106.185 E0.9371
G1 X83.867 Y105.950 E0.9498
G1 X83.867 Y105.272 E0.9758
G1 X83.633 Y105.506 E0.9885
G1 X83.633 Y104.827 E1.0145
G1 X83.867 Y104.593 E1.0272
G1 X83.867 Y103.914 E1.0532
G1 X83.633 Y104.148 E1.0659
G1 X83.633 Y103.470 E1.0919
G1 X83.867 Y103.235 E1.1046
G1 X83.867 Y102.556 E1.1307
G1 X83.633 Y102.791 E1.1434
G1 X83.633 Y102.112 E1.1694
G1 X83.867 Y101.878 E1.1821
G1 X83.867 Y101.199 E1.2081
G1 X83.633 Y101.433 E1.2208
G1 X83.633 Y100.754 E1.2468
G1 X83.867 Y100.520 E1.2595
G1 X83.867 Y99.841 E1.2855
G1 X83.633 Y100.075 E1.2982
G1 X83.633 Y99.397 E1.3242
G1 X83.867 Y99.162 E1.3369
G1 X83.867 Y98.483 E1.3629
G1 X83.633 Y98.718 E1.3756
G1 X83.633 Y98.039 E1.4016
G1 X83.867 Y97.805 E1.4143
G1 X83.867 Y97.126 E1.4403
G1 X83.633 Y97.360 E1.4530
G1 X83.633 Y96.681 E1.4791
G1 X83.867 Y96.447 E1.4918
G1 X83.867 Y95.768 E1.5178
G1 X83.633 Y96.003 E1.5305
G1 X83.633 Y95.324 E1.5565
G1 X83.867 Y95.089 E1.5692
G1 X83.867 Y94.411 E1.5952
G1 X83.633 Y94.645 E1.6079
G1 X83.633 Y93.966 E1.6339
G1 X83.867 Y93.732 E1.6466
G1 X83.867 Y93.053 E1.6726
G1 X83.633 Y93.287 E1.6853
G1 X83.633 Y92.608 E1.7113
G1 X83.867 Y92.374 E1.7240
G1 X83.867 Y91.695 E1.7500
G1 X83.633 Y91.930 E1.7627
G1 X83.633 Y91.251 E1.7887
G1 X83.867 Y91.016 E1.8014
G1 X83.867 Y90.338 E1.8275
G1 X83.633 Y90.572 E1.8402
G1 X83.633 Y89.893 E1.8662
G1 X83.867 Y89.659 E1.8789
G1 X83.867 Y88.980 E1.9049
G1 X83.633 Y89.214 E1.9176
G1 X83.633 Y88.536 E1.9436
G1 X83.867 Y88.301 E1.9563
G1 X83.867 Y87.622 E1.9823
G1 X83.633 Y87.857 E1.9950
G1 X83.633 Y87.178 E2.0210
G1 X83.867 Y86.943 E2.0337
G1 X83.867 Y86.265 E2.0597
G1 X83.633 Y86.499 E2.0724
G1 X83.633 Y85.820 E2.0984
G1 X83.867 Y85.586 E2.1111
G1 X83.867 Y84.907 E2.1371
G1 X83.633 Y85.141 E2.1498
G1 X83.867 Y83.549 F4800
G92 E0
G1 X83.549 Y83.867 E0.0172 F2250
G1 X83.633 Y83.867 E0.0204
G1 X83.633 Y84.463 E0.0432
G1 X83.867 Y84.228 E0.0559
G1 X83.867 Y83.867 E0.0698
G1 X84.228 Y83.867 E0.0836
G1 X84.463 Y83.633 E0.0963
G1 X85.141 Y83.633 E0.1223
G1 X84.907 Y83.867 E0.1350
G1 X85.586 Y83.867 E0.1610
G1 X85.820 Y83.633 E0.1737
G1 X86.499 Y83.633 E0.1997
G1 X86.265 Y83.867 E0.2124
G1 X86.943 Y83.867 E0.2384
G1 X87.178 Y83.633 E0.2511
G1 X87.857 Y83.633 E0.2772
G1 X87.622 Y83.867 E0.2899
G1 X88.301 Y83.867 E0.3159
G1 X88.536 Y83.633 E0.3286
G1 X89.214 Y83.633 E0.3546
G1 X88.980 Y83.867 E0.3673
G1 X89.659 Y83.867 E0.3933
G1 X89.893 Y83.633 E0.4060
G1 X90.572 Y83.633 E0.4320
G1 X90.338 Y83.867 E0.4447
G1 X91.016 Y83.867 E0.4707
G1 X91.251 Y83.633 E0.4834
G1 X91.930 Y83.633 E0.5094
G1 X91.695 Y83.867 E0.5221
G1 X92.374 Y83.867 E0.5481
G1 X92.608 Y83.633 E0.5608
G1 X93.287 Y83.633 E0.5868
G1 X93.053 Y83.867 E0.5995
G1 X93.732 Y83.867 E0.6255
G1 X93.966 Y83.633 E0.6382
G1 X94.645 Y83.633 E0.6643
G1 X94.411 Y83.867 E0.6770
G1 X95.089 Y83.867 E0.7030
G1 X95.324 Y83.633 E0.7157
G1 X96.003 Y83.633 E0.7417
G1 X95.768 Y83.867 E0.7544
G1 X96.447 Y83.867 E0.7804
G1 X96.681 Y83.633 E0.7931
G1 X97.360 Y83.633 E0.8191
G1 X97.126 Y83.867 E0.8318
G1 X97.805 Y83.867 E0.8578
G1 X98.039 Y83.633 E0.8705
G1 X98.718 Y83.633 E0.8965
G1 X98.483 Y83.867 E0.9092
G1 X99.162 Y83.867 E0.9352
G1 X99.397 Y83.633 E0.9479
G1 X100.075 Y83.633 E0.9739
G1 X99.841 Y83.867 E0.9866
G1 X100.520 Y83.867 E1.0127
G1 X100.754 Y83.633 E1.0254
G1 X101.433 Y83.633 E1.0514
G1 X101.199 Y83.867 E1.0641
G1 X101.878 Y83.867 E1.0901
G1 X102.112 Y83.633 E1.1028
G1 X102.791 Y83.633 E1.1288
G1 X102.556 Y83.867 E1.1415
G1 X103.235 Y83.867 E1.1675
G1 X103.470 Y83.633 E1.1802
G1 X104.148 Y83.633 E1.2062
G1 X103.914 Y83.867 E1.2189
G1 X104.593 Y83.867 E1.2449
G1 X104.827 Y83.633 E1.2576
G1 X105.506 Y83.633 E1.2836
G1 X105.272 Y83.867 E1.2963
G1 X105.950 Y83.867 E1.3223
G1 X106.185 Y83.633 E1.3350
G1 X106.864 Y83.633 E1.3611
G1 X106.629 Y83.867 E1.3738
G1 X107.308 Y83.867 E1.3998
G1 X107.543 Y83.633 E1.4125
G1 X108.221 Y83.633 E1.4385
G1 X107.987 Y83.867 E1.4512
G1 X108.666 Y83.867 E1.4772
G1 X108.900 Y83.633 E1.4899
G1 X109.579 Y83.633 E1.5159
G1 X109.345 Y83.867 E1.5286
G1 X110.023 Y83.867 E1.5546
G1 X110.258 Y83.633 E1.5673
G1 X110.937 Y83.633 E1.5933
G1 X110.702 Y83.867 E1.6060
G1 X111.381 Y83.867 E1.6320
G1 X111.615 Y83.633 E1.6447
G1 X112.294 Y83.633 E1.6707
G1 X112.060 Y83.867 E1.6834
G1 X112.739 Y83.867 E1.7095
G1 X112.973 Y83.633 E1.7222
G1 X113.652 Y83.633 E1.7482
G1 X113.418 Y83.867 E1.7609
G1 X114.096 Y83.867 E1.7869
G1 X114.331 Y83.633 E1.7996
G1 X115.010 Y83.633 E1.8256
G1 X114.775 Y83.867 E1.8383
G1 X115.454 Y83.867 E1.8643
G1 X115.688 Y83.633 E1.8770
G1 X116.133 Y83.633 E1.8940
G1 X116.133 Y83.188 E1.9111
G1 X116.367 Y82.954 E1.9238
G1 X116.367 Y82.275 E1.9498
G1 X116.133 Y82.510 E1.9625
G1 X116.133 Y81.831 E1.9885
G1 X116.367 Y81.596 E2.0012
G1 X116.367 Y80.918 E2.0272
G1 X116.133 Y81.152 E2.0399
G1 X116.133 Y80.473 E2.0659
G1 X116.367 Y80.239 E2.0786
G1 X116.367 Y79.560 E2.1046
G1 X116.133 Y79.794 E2.1173
G1 X116.133 Y79.115 E2.1433
G1 X116.367 Y78.881 E2.1560
G1 X116.367 Y78.202 E2.1820
G1 X116.133 Y78.437 E2.1947
G1 X116.133 Y77.758 E2.2207
G1 X116.367 Y77.523 E2.2334
G1 X116.367 Y76.845 E2.2594
G1 X116.133 Y77.079 E2.2722
G1 X116.133 Y76.400 E2.2982
G1 X116.400 Y76.133 E2.3126
G1 X115.721 Y76.133 E2.3387
G1 X115.487 Y76.367 E2.3514
G1 X114.808 Y76.367 E2.3774
G1 X115.043 Y76.133 E2.3901
G1 X114.364 Y76.133 E2.4161
G1 X114.129 Y76.367 E2.4288
G1 X113.450 Y76.367 E2.4548
G1 X113.685 Y76.133 E2.4675
G1 X113.006 Y76.133 E2.4935
G1 X112.772 Y76.367 E2.5062
G1 X112.093 Y76.367 E2.5322
G1 X112.327 Y76.133 E2.5449
G1 X111.648 Y76.133 E2.5709
G1 X111.414 Y76.367 E2.5836
G1 X110.735 Y76.367 E2.6096
