; G-Code generated by Simplify3D(R) Version 3.0.2
; Apr 30, 2016 at 6:38:39 PM
; Settings Summary
;   processName,Process2
;   applyToModels,Rookv_fixed1
;   profileName,i3 - V6 (modified)
;   profileVersion,2015-12-23 01:27:31
;   baseProfile,Default (modified)
;   printMaterial,
;   printQuality,
;   printExtruders,
;   extruderName,Primary Extruder
;   extruderToolheadNumber,0
;   extruderDiameter,0.4
;   extruderAutoWidth,1
;   extruderWidth,0.48
;   extrusionMultiplier,0.96
;   extruderUseRetract,1
;   extruderRetractionDistance,0.8
;   extruderExtraRestartDistance,0
;   extruderRetractionZLift,0
;   extruderRetractionSpeed,1800
;   extruderUseCoasting,0
;   extruderCoastingDistance,0.2
;   extruderUseWipe,0
;   extruderWipeDistance,5
;   primaryExtruder,0
;   layerHeight,0.2
;   topSolidLayers,1
;   bottomSolidLayers,1
;   perimeterOutlines,1
;   printPerimetersInsideOut,1
;   startPointOption,2
;   startPointOriginX,0
;   startPointOriginY,0
;   startPointOriginZ,300
;   sequentialIslands,0
;   spiralVaseMode,0
;   firstLayerHeightPercentage,90
;   firstLayerWidthPercentage,100
;   firstLayerUnderspeed,0.3
;   useRaft,0
;   raftExtruder,0
;   raftLayers,2
;   raftOffset,5
;   raftSeparationDistance,0.28
;   raftInfill,85
;   disableRaftBaseLayers,1
;   useSkirt,1
;   skirtExtruder,0
;   skirtLayers,1
;   skirtOutlines,1
;   skirtOffset,10
;   usePrimePillar,0
;   primePillarExtruder,999
;   primePillarWidth,12
;   primePillarLocation,7
;   primePillarSpeedMultiplier,1
;   useOozeShield,0
;   oozeShieldExtruder,999
;   oozeShieldOffset,2
;   oozeShieldOutlines,1
;   oozeShieldSidewallShape,1
;   oozeShieldSidewallAngle,30
;   oozeShieldSpeedMultiplier,1
;   infillExtruder,0
;   internalInfillPattern,Rectilinear
;   externalInfillPattern,Rectilinear
;   infillPercentage,20
;   outlineOverlapPercentage,15
;   infillExtrusionWidthPercentage,100
;   minInfillLength,5
;   infillLayerInterval,1
;   infillAngles,45,-45
;   overlapInfillAngles,0
;   generateSupport,0
;   supportExtruder,0
;   supportInfillPercentage,30
;   supportExtraInflation,0
;   denseSupportLayers,0
;   denseSupportInfillPercentage,70
;   supportLayerInterval,1
;   supportHorizontalPartOffset,0.3
;   supportUpperSeparationLayers,1
;   supportLowerSeparationLayers,1
;   supportType,0
;   supportGridSpacing,1.5
;   maxOverhangAngle,45
;   supportAngles,0
;   temperatureName,Primary Extruder,Heated Bed
;   temperatureNumber,0,1
;   temperatureSetpointCount,1,1
;   temperatureSetpointLayers,1,1
;   temperatureSetpointTemperatures,220,104
;   temperatureStabilizeAtStartup,1,1
;   temperatureHeatedBed,0,1
;   temperatureRelayBetweenLayers,0,0
;   temperatureRelayBetweenLoops,0,0
;   fanLayers,1,5
;   fanSpeeds,0,0
;   blipFanToFullPower,1
;   adjustSpeedForCooling,1
;   minSpeedLayerTime,45
;   minCoolingSpeedSlowdown,75
;   increaseFanForCooling,1
;   minFanLayerTime,45
;   maxCoolingFanSpeed,55
;   increaseFanForBridging,1
;   bridgingFanSpeed,55
;   use5D,1
;   relativeEdistances,0
;   allowEaxisZeroing,1
;   independentExtruderAxes,0
;   includeM10123,0
;   stickySupport,1
;   applyToolheadOffsets,0
;   gcodeXoffset,0
;   gcodeYoffset,0
;   gcodeZoffset,0
;   overrideMachineDefinition,1
;   machineTypeOverride,0
;   strokeXoverride,200
;   strokeYoverride,200
;   strokeZoverride,200
;   originOffsetXoverride,0
;   originOffsetYoverride,0
;   originOffsetZoverride,0
;   homeXdirOverride,-1
;   homeYdirOverride,-1
;   homeZdirOverride,-1
;   flipXoverride,1
;   flipYoverride,-1
;   flipZoverride,1
;   toolheadOffsets,0,0|0,0|0,0|0,0|0,0|0,0
;   overrideFirmwareConfiguration,1
;   firmwareTypeOverride,RepRap (Marlin/Repetier/Sprinter)
;   GPXconfigOverride,r2
;   baudRateOverride,250000
;   overridePrinterModels,1
;   printerModelsOverride
;   startingGcode,G28 ; home all axes,G29; bed level
;   layerChangeGcode,
;   retractionGcode,
;   toolChangeGcode,
;   endingGcode,M104 S0 ; turn off extruder,M140 S0 ; turn off bed,G28 X0 ; home X axis,M84 ; disable motors,M107; print fan off
;   createX3G,0
;   celebration,0
;   celebrationSong,Random Song
;   createMB5G,0
;   postProcessing,
;   defaultSpeed,3600
;   outlineUnderspeed,0.6
;   solidInfillUnderspeed,0.85
;   supportUnderspeed,0.8
;   rapidXYspeed,4500
;   rapidZspeed,1000
;   minBridgingArea,50
;   bridgingExtraInflation,0
;   bridgingExtrusionMultiplier,1
;   bridgingSpeedMultiplier,1
;   filamentDiameter,1.75
;   filamentPricePerKg,80
;   filamentDensity,1.25
;   useMinPrintHeight,0
;   minPrintHeight,0
;   useMaxPrintHeight,0
;   maxPrintHeight,30
;   useDiaphragm,0
;   diaphragmLayerInterval,20
;   robustSlicing,1
;   mergeAllIntoSolid,0
;   onlyRetractWhenCrossingOutline,1
;   retractBetweenLayers,1
;   useRetractionMinTravel,0
;   retractionMinTravel,3
;   retractWhileWiping,1
;   onlyWipeOutlines,1
;   avoidCrossingOutline,1
;   maxMovementDetourFactor,3
;   toolChangeRetractionDistance,12
;   toolChangeExtraRestartDistance,-0.5
;   toolChangeRetractionSpeed,600
;   allowThinWallGapFill,1
;   thinWallAllowedOverlapPercentage,10
;   horizontalSizeCompensation,0
G90
M82
M106 S0
M140 S104
M190 S104
M104 S220 T0
M109 S220 T0
G28 ; home all axes
G29; bed level
G92 E0
G1 E-0.8000 F1800
G1 Z0.180 F1000
; layer 1, Z = 0.18
T0
; tool H0.200 W0.480
; skirt
G1 X80.553 Y80.846 F4500
G1 E0.0000 F540
G92 E0
G1 X80.846 Y80.553 E0.0159 F2700
G1 X80.850 Y80.550 E0.0161
G1 X82.127 Y79.373 E0.0826
G1 X82.130 Y79.370 E0.0828
G1 X82.419 Y79.123 E0.0973
G1 X82.423 Y79.120 E0.0975
G1 X83.130 Y78.561 E0.1321
G1 X83.130 Y78.561 E0.1321
G1 X83.145 Y78.549 E0.1328
G1 X83.145 Y78.549 E0.1328
G1 X83.805 Y78.030 E0.1650
G1 X83.809 Y78.028 E0.1651
G1 X84.122 Y77.801 E0.1800
G1 X84.126 Y77.798 E0.1801
G1 X85.562 Y76.838 E0.2463
G1 X85.566 Y76.835 E0.2465
G1 X85.903 Y76.628 E0.2617
G1 X85.907 Y76.626 E0.2618
G1 X87.427 Y75.774 E0.3286
G1 X87.431 Y75.771 E0.3288
G1 X87.796 Y75.586 E0.3445
G1 X87.801 Y75.584 E0.3447
G1 X89.378 Y74.860 E0.4112
G1 X89.382 Y74.858 E0.4113
G1 X89.736 Y74.712 E0.4260
G1 X89.740 Y74.710 E0.4262
G1 X91.362 Y74.110 E0.4925
G1 X91.366 Y74.108 E0.4926
G1 X91.744 Y73.985 E0.5079
G1 X91.749 Y73.983 E0.5080
G1 X93.428 Y73.508 E0.5749
G1 X93.433 Y73.507 E0.5751
G1 X93.836 Y73.410 E0.5910
G1 X93.841 Y73.409 E0.5912
G1 X95.545 Y73.074 E0.6577
G1 X95.550 Y73.073 E0.6579
G1 X95.927 Y73.014 E0.6725
G1 X95.931 Y73.013 E0.6727
G1 X97.649 Y72.808 E0.7390
G1 X97.654 Y72.808 E0.7392
G1 X98.058 Y72.776 E0.7547
G1 X98.063 Y72.776 E0.7549
G1 X99.801 Y72.709 E0.8215
G1 X99.805 Y72.709 E0.8217
G1 X100.196 Y72.709 E0.8367
G1 X100.200 Y72.709 E0.8368
G1 X101.934 Y72.776 E0.9033
G1 X101.939 Y72.776 E0.9035
G1 X102.341 Y72.808 E0.9190
G1 X102.346 Y72.808 E0.9191
G1 X104.067 Y73.013 E0.9855
G1 X104.071 Y73.013 E0.9857
G1 X104.449 Y73.073 E1.0004
G1 X104.454 Y73.074 E1.0006
G1 X106.159 Y73.409 E1.0672
G1 X106.164 Y73.410 E1.0674
G1 X106.567 Y73.507 E1.0832
G1 X106.572 Y73.508 E1.0834
G1 X108.251 Y73.983 E1.1503
G1 X108.256 Y73.985 E1.1505
G1 X108.634 Y74.108 E1.1657
G1 X108.638 Y74.110 E1.1659
G1 X110.262 Y74.711 E1.2322
G1 X110.267 Y74.713 E1.2324
G1 X110.625 Y74.861 E1.2473
G1 X110.629 Y74.863 E1.2475
G1 X112.203 Y75.587 E1.3138
G1 X112.207 Y75.589 E1.3140
G1 X112.568 Y75.773 E1.3295
G1 X112.572 Y75.775 E1.3297
G1 X114.087 Y76.624 E1.3962
G1 X114.091 Y76.627 E1.3964
G1 X114.423 Y76.830 E1.4113
G1 X114.426 Y76.832 E1.4115
G1 X115.870 Y77.795 E1.4780
G1 X115.874 Y77.797 E1.4782
G1 X116.200 Y78.034 E1.4936
G1 X116.204 Y78.037 E1.4938
G1 X117.570 Y79.114 E1.5605
G1 X117.574 Y79.117 E1.5606
G1 X117.876 Y79.375 E1.5759
G1 X117.880 Y79.379 E1.5761
G1 X119.153 Y80.555 E1.6425
G1 X119.156 Y80.559 E1.6427
G1 X119.437 Y80.839 E1.6579
G1 X119.440 Y80.843 E1.6581
G1 X120.624 Y82.123 E1.7249
G1 X120.627 Y82.127 E1.7250
G1 X120.892 Y82.437 E1.7407
G1 X120.895 Y82.441 E1.7408
G1 X121.963 Y83.801 E1.8071
G1 X121.966 Y83.805 E1.8073
G1 X122.187 Y84.109 E1.8217
G1 X122.190 Y84.113 E1.8219
G1 X123.157 Y85.553 E1.8884
G1 X123.159 Y85.557 E1.8885
G1 X123.377 Y85.912 E1.9045
G1 X123.380 Y85.917 E1.9047
G1 X124.228 Y87.437 E1.9714
G1 X124.230 Y87.441 E1.9716
G1 X124.406 Y87.786 E1.9864
G1 X124.408 Y87.790 E1.9866
G1 X125.133 Y89.362 E2.0529
G1 X125.135 Y89.367 E2.0531
G1 X125.286 Y89.731 E2.0682
G1 X125.288 Y89.735 E2.0684
G1 X125.893 Y91.368 E2.1351
G1 X125.894 Y91.372 E2.1353
G1 X126.021 Y91.761 E2.1510
G1 X126.022 Y91.766 E2.1512
G1 X126.492 Y93.440 E2.2178
G1 X126.493 Y93.444 E2.2179
G1 X126.584 Y93.824 E2.2329
G1 X126.585 Y93.829 E2.2331
G1 X126.923 Y95.527 E2.2995
G1 X126.924 Y95.532 E2.2996
G1 X126.986 Y95.921 E2.3147
G1 X126.986 Y95.925 E2.3149
G1 X127.192 Y97.649 E2.3814
G1 X127.192 Y97.654 E2.3816
G1 X127.224 Y98.058 E2.3971
G1 X127.224 Y98.063 E2.3973
G1 X127.291 Y99.801 E2.4639
G1 X127.291 Y99.805 E2.4641
G1 X127.291 Y100.196 E2.4791
G1 X127.291 Y100.200 E2.4793
G1 X127.224 Y101.934 E2.5457
G1 X127.224 Y101.939 E2.5459
G1 X127.192 Y102.341 E2.5614
G1 X127.192 Y102.346 E2.5616
G1 X126.986 Y104.073 E2.6282
G1 X126.986 Y104.077 E2.6284
G1 X126.924 Y104.467 E2.6435
G1 X126.923 Y104.472 E2.6437
G1 X126.585 Y106.171 E2.7101
G1 X126.584 Y106.176 E2.7103
G1 X126.493 Y106.556 E2.7252
G1 X126.492 Y106.560 E2.7254
G1 X126.022 Y108.234 E2.7920
G1 X126.021 Y108.238 E2.7922
G1 X125.894 Y108.628 E2.8079
G1 X125.893 Y108.632 E2.8081
G1 X125.287 Y110.267 E2.8749
G1 X125.285 Y110.272 E2.8750
G1 X125.132 Y110.641 E2.8903
G1 X125.130 Y110.645 E2.8905
G1 X124.404 Y112.213 E2.9568
G1 X124.402 Y112.218 E2.9569
G1 X124.229 Y112.558 E2.9716
G1 X124.227 Y112.562 E2.9717
G1 X123.381 Y114.077 E3.0382
G1 X123.379 Y114.081 E3.0384
G1 X123.165 Y114.431 E3.0541
G1 X123.162 Y114.435 E3.0543
G1 X122.196 Y115.879 E3.1209
G1 X122.193 Y115.882 E3.1210
G1 X121.968 Y116.192 E3.1357
G1 X121.965 Y116.196 E3.1359
G1 X120.892 Y117.563 E3.2025
G1 X120.889 Y117.566 E3.2027
G1 X120.619 Y117.883 E3.2186
G1 X120.616 Y117.886 E3.2188
G1 X119.435 Y119.160 E3.2853
G1 X119.431 Y119.163 E3.2855
G1 X119.163 Y119.431 E3.3000
G1 X119.160 Y119.435 E3.3002
G1 X117.886 Y120.616 E3.3668
G1 X117.883 Y120.619 E3.3670
G1 X117.566 Y120.889 E3.3829
G1 X117.563 Y120.892 E3.3831
G1 X116.196 Y121.965 E3.4497
G1 X116.192 Y121.968 E3.4498
G1 X115.882 Y122.193 E3.4645
G1 X115.879 Y122.196 E3.4647
G1 X114.435 Y123.162 E3.5312
G1 X114.431 Y123.165 E3.5314
G1 X114.081 Y123.379 E3.5471
G1 X114.077 Y123.381 E3.5473
G1 X112.562 Y124.227 E3.6138
G1 X112.558 Y124.229 E3.6140
G1 X112.218 Y124.402 E3.6286
G1 X112.213 Y124.404 E3.6288
G1 X110.645 Y125.130 E3.6950
G1 X110.641 Y125.132 E3.6952
G1 X110.272 Y125.285 E3.7105
G1 X110.267 Y125.287 E3.7107
G1 X108.632 Y125.893 E3.7775
G1 X108.628 Y125.894 E3.7777
G1 X108.238 Y126.021 E3.7934
G1 X108.234 Y126.022 E3.7935
G1 X106.560 Y126.492 E3.8601
G1 X106.556 Y126.493 E3.8603
G1 X106.176 Y126.584 E3.8753
G1 X106.171 Y126.585 E3.8755
G1 X104.472 Y126.923 E3.9419
G1 X104.467 Y126.924 E3.9420
G1 X104.077 Y126.986 E3.9572
G1 X104.073 Y126.986 E3.9574
G1 X102.346 Y127.192 E4.0240
G1 X102.341 Y127.192 E4.0242
G1 X101.939 Y127.224 E4.0396
G1 X101.934 Y127.224 E4.0398
G1 X100.200 Y127.291 E4.1063
G1 X100.196 Y127.291 E4.1065
G1 X99.805 Y127.291 E4.1214
G1 X99.801 Y127.291 E4.1216
G1 X98.063 Y127.224 E4.1882
G1 X98.058 Y127.224 E4.1884
G1 X97.654 Y127.192 E4.2040
G1 X97.649 Y127.192 E4.2041
G1 X95.925 Y126.986 E4.2707
G1 X95.921 Y126.986 E4.2708
G1 X95.532 Y126.924 E4.2859
G1 X95.527 Y126.923 E4.2861
G1 X93.829 Y126.585 E4.3525
G1 X93.824 Y126.584 E4.3526
G1 X93.444 Y126.493 E4.3676
G1 X93.440 Y126.492 E4.3678
G1 X91.766 Y126.022 E4.4344
G1 X91.761 Y126.021 E4.4346
G1 X91.372 Y125.894 E4.4503
G1 X91.368 Y125.893 E4.4504
G1 X89.735 Y125.288 E4.5171
G1 X89.731 Y125.286 E4.5173
G1 X89.367 Y125.135 E4.5324
G1 X89.362 Y125.133 E4.5326
G1 X87.790 Y124.408 E4.5989
G1 X87.786 Y124.406 E4.5991
G1 X87.441 Y124.230 E4.6140
G1 X87.437 Y124.228 E4.6141
G1 X85.917 Y123.380 E4.6808
G1 X85.912 Y123.377 E4.6810
G1 X85.557 Y123.159 E4.6970
G1 X85.553 Y123.157 E4.6972
G1 X84.113 Y122.190 E4.7636
G1 X84.109 Y122.187 E4.7638
G1 X83.805 Y121.966 E4.7782
G1 X83.801 Y121.963 E4.7784
G1 X82.441 Y120.895 E4.8447
G1 X82.437 Y120.892 E4.8449
G1 X82.127 Y120.627 E4.8605
G1 X82.123 Y120.624 E4.8607
G1 X80.843 Y119.440 E4.9275
G1 X80.839 Y119.437 E4.9277
G1 X80.559 Y119.156 E4.9429
G1 X80.555 Y119.153 E4.9431
G1 X79.379 Y117.880 E5.0095
G1 X79.375 Y117.876 E5.0097
G1 X79.117 Y117.574 E5.0249
G1 X79.114 Y117.570 E5.0251
G1 X78.037 Y116.204 E5.0918
G1 X78.034 Y116.200 E5.0919
G1 X77.797 Y115.874 E5.1074
G1 X77.795 Y115.870 E5.1076
G1 X76.832 Y114.426 E5.1740
G1 X76.830 Y114.423 E5.1742
G1 X76.627 Y114.091 E5.1891
G1 X76.624 Y114.087 E5.1893
G1 X75.775 Y112.572 E5.2558
G1 X75.773 Y112.568 E5.2560
G1 X75.589 Y112.207 E5.2715
G1 X75.587 Y112.203 E5.2717
G1 X74.863 Y110.629 E5.3381
G1 X74.861 Y110.625 E5.3383
G1 X74.713 Y110.267 E5.3531
G1 X74.711 Y110.262 E5.3533
G1 X74.110 Y108.638 E5.4197
G1 X74.108 Y108.634 E5.4198
G1 X73.985 Y108.256 E5.4351
G1 X73.983 Y108.251 E5.4353
G1 X73.508 Y106.572 E5.5021
G1 X73.507 Y106.567 E5.5023
G1 X73.410 Y106.164 E5.5182
G1 X73.409 Y106.159 E5.5184
G1 X73.074 Y104.454 E5.5850
G1 X73.073 Y104.449 E5.5852
G1 X73.013 Y104.071 E5.5998
G1 X73.013 Y104.067 E5.6000
G1 X72.808 Y102.346 E5.6664
G1 X72.808 Y102.341 E5.6666
G1 X72.776 Y101.939 E5.6820
G1 X72.776 Y101.934 E5.6822
G1 X72.709 Y100.200 E5.7487
G1 X72.709 Y100.196 E5.7489
G1 X72.709 Y99.805 E5.7638
G1 X72.709 Y99.801 E5.7640
G1 X72.776 Y98.063 E5.8307
G1 X72.776 Y98.058 E5.8308
G1 X72.808 Y97.654 E5.8464
G1 X72.808 Y97.649 E5.8466
G1 X73.013 Y95.931 E5.9128
G1 X73.014 Y95.927 E5.9130
G1 X73.073 Y95.550 E5.9276
G1 X73.074 Y95.545 E5.9278
G1 X73.409 Y93.841 E5.9944
G1 X73.410 Y93.836 E5.9946
G1 X73.507 Y93.433 E6.0104
G1 X73.508 Y93.428 E6.0106
G1 X73.983 Y91.749 E6.0775
G1 X73.985 Y91.744 E6.0777
G1 X74.108 Y91.366 E6.0929
G1 X74.110 Y91.362 E6.0931
G1 X74.710 Y89.740 E6.1594
G1 X74.712 Y89.736 E6.1595
G1 X74.858 Y89.382 E6.1742
G1 X74.860 Y89.378 E6.1744
G1 X75.584 Y87.801 E6.2409
G1 X75.586 Y87.796 E6.2411
G1 X75.771 Y87.431 E6.2567
G1 X75.774 Y87.427 E6.2569
G1 X76.626 Y85.907 E6.3237
G1 X76.628 Y85.903 E6.3239
G1 X76.835 Y85.566 E6.3391
G1 X76.838 Y85.562 E6.3392
G1 X77.801 Y84.122 E6.4056
G1 X77.803 Y84.118 E6.4058
G1 X78.036 Y83.797 E6.4210
G1 X78.039 Y83.794 E6.4211
G1 X79.112 Y82.433 E6.4875
G1 X79.115 Y82.429 E6.4877
G1 X79.367 Y82.133 E6.5026
G1 X79.370 Y82.130 E6.5028
G1 X80.550 Y80.850 E6.5695
G1 X80.553 Y80.846 E6.5697
; outer perimeter
G1 X88.110 Y88.110 F4500
G92 E0
G1 X89.081 Y87.216 E0.0506 F1620
G1 X89.624 Y86.786 E0.0771
G1 X90.119 Y86.398 E0.1012
G1 X91.214 Y85.665 E0.1517
G1 X92.366 Y85.019 E0.2023
G1 X93.566 Y84.469 E0.2529
G1 X94.805 Y84.010 E0.3035
G1 X96.075 Y83.650 E0.3541
G1 X97.370 Y83.396 E0.4047
G1 X98.679 Y83.240 E0.4552
G1 X100.000 Y83.189 E0.5058
G1 X101.318 Y83.240 E0.5563
G1 X102.630 Y83.396 E0.6070
G1 X103.925 Y83.650 E0.6575
G1 X105.195 Y84.010 E0.7081
G1 X106.434 Y84.469 E0.7587
G1 X107.061 Y84.756 E0.7852
G1 X107.630 Y85.019 E0.8092
G1 X108.783 Y85.665 E0.8598
G1 X109.881 Y86.398 E0.9104
G1 X110.919 Y87.216 E0.9610
G1 X111.887 Y88.110 E1.0115
G1 X112.784 Y89.081 E1.0622
G1 X113.599 Y90.119 E1.1128
G1 X114.335 Y91.214 E1.1633
G1 X114.978 Y92.366 E1.2138
G1 X115.532 Y93.567 E1.2645
G1 X115.990 Y94.805 E1.3151
G1 X116.346 Y96.075 E1.3656
G1 X116.604 Y97.371 E1.4163
G1 X116.760 Y98.679 E1.4667
G1 X116.811 Y100.000 E1.5174
G1 X116.760 Y101.318 E1.5679
G1 X116.604 Y102.629 E1.6185
G1 X116.346 Y103.925 E1.6692
G1 X115.990 Y105.195 E1.7197
G1 X115.532 Y106.433 E1.7703
G1 X114.978 Y107.630 E1.8208
G1 X114.334 Y108.783 E1.8714
G1 X113.599 Y109.881 E1.9220
G1 X112.784 Y110.919 E1.9726
G1 X111.887 Y111.887 E2.0232
G1 X110.919 Y112.784 E2.0737
G1 X109.881 Y113.599 E2.1243
G1 X108.783 Y114.334 E2.1749
G1 X107.630 Y114.978 E2.2255
G1 X106.433 Y115.532 E2.2761
G1 X105.195 Y115.990 E2.3266
G1 X103.925 Y116.346 E2.3772
G1 X102.629 Y116.604 E2.4278
G1 X101.318 Y116.760 E2.4784
G1 X100.000 Y116.811 E2.5289
G1 X98.679 Y116.760 E2.5796
G1 X97.371 Y116.604 E2.6301
